**kern
*staff1
!!pagebreak:original
*I"P1
=1-
*clefG2
*k[b-]
*M3/4
[2ee\
8ee\L]
8ff\J
=2
[2ee\
8ee\L]
8ff\J
=3
4ee\
4dd\
4cc\
=4
[2ee\
8ee\L]
8ff\J
=5
[2ee\
8ee\L]
8ff\J
=6
[2ee\
8ee\L]
8aa\J
=7
4gg\
4ff\
4ee\
=8
[2dd\
8dd\L]
8ff\J
=9
4ee\
4dd\
4cc\
*-
